svg/24/person.svg

<svg width="24" height="24" viewBox="0 0 24 24" fill="currentColor" xmlns="http://www.w3.org/2000/svg"><path fill-rule="evenodd" clip-rule="evenodd" d="M17 7C17 9.76142 14.7614 12 12 12C9.23858 12 7 9.76142 7 7C7 4.23858 9.23858 2 12 2C14.7614 2 17 4.23858 17 7ZM15.5 7C15.5 8.933 13.933 10.5 12 10.5C10.067 10.5 8.5 8.933 8.5 7C8.5 5.067 10.067 3.5 12 3.5C13.933 3.5 15.5 5.067 15.5 7Z"/><path fill-rule="evenodd" clip-rule="evenodd" d="M14 14H10C6.68629 14 4 16.6863 4 20C4 21.1046 4.89543 22 6 22H18C19.1046 22 20 21.1046 20 20C20 16.6863 17.3137 14 14 14ZM5.5 20C5.5 17.5147 7.51472 15.5 10 15.5H14C16.4853 15.5 18.5 17.5147 18.5 20C18.5 20.2761 18.2761 20.5 18 20.5H6C5.72386 20.5 5.5 20.2761 5.5 20Z"/></svg>

<svg xmlns="http://www.w3.org/2000/svg" width="24" height="24" fill="currentColor" viewBox="0 0 24 24">
  <path fill-rule="evenodd" d="M17 7A5 5 0 1 1 7 7a5 5 0 0 1 10 0Zm-1.5 0a3.5 3.5 0 1 1-7 0 3.5 3.5 0 0 1 7 0ZM14 14h-4a6 6 0 0 0-6 6 2 2 0 0 0 2 2h12a2 2 0 0 0 2-2 6 6 0 0 0-6-6Zm-8.5 6a4.5 4.5 0 0 1 4.5-4.5h4a4.5 4.5 0 0 1 4.5 4.5.5.5 0 0 1-.5.5H6a.5.5 0 0 1-.5-.5Z" clip-rule="evenodd"/>
</svg>
